svg/fluentui-system-icons/ic_fluent_contact_card_28_filled.svg

<svg width="28" height="28" viewBox="0 0 28 28" fill="none" xmlns="http://www.w3.org/2000/svg">
<path d="M4.75391 4C3.23512 4 2.00391 5.23122 2.00391 6.75V21.2501C2.00391 22.7688 3.23513 24.0001 4.75391 24.0001H23.2505C24.7693 24.0001 26.0005 22.7688 26.0005 21.2501V6.75C26.0005 5.23122 24.7693 4 23.2505 4H4.75391ZM15 11.75C15 11.3358 15.3358 11 15.75 11H21.25C21.6642 11 22 11.3358 22 11.75C22 12.1642 21.6642 12.5 21.25 12.5H15.75C15.3358 12.5 15 12.1642 15 11.75ZM15.75 15H21.25C21.6642 15 22 15.3358 22 15.75C22 16.1642 21.6642 16.5 21.25 16.5H15.75C15.3358 16.5 15 16.1642 15 15.75C15 15.3358 15.3358 15 15.75 15ZM11.25 11.75C11.25 12.7165 10.4665 13.5 9.5 13.5C8.5335 13.5 7.75 12.7165 7.75 11.75C7.75 10.7835 8.5335 10 9.5 10C10.4665 10 11.25 10.7835 11.25 11.75ZM7 14.5H12C12.5523 14.5 13 14.9477 13 15.5V16C13 16 12.5 18.5 9.5 18.5C6.5 18.5 6 16 6 16V15.5C6 14.9477 6.44772 14.5 7 14.5Z" fill="#212121"/>
</svg>

<svg xmlns="http://www.w3.org/2000/svg" width="28" height="28"><path d="M4.754 4a2.75 2.75 0 0 0-2.75 2.75v14.5A2.75 2.75 0 0 0 4.754 24H23.25A2.75 2.75 0 0 0 26 21.25V6.75A2.75 2.75 0 0 0 23.25 4H4.755ZM15 11.75a.75.75 0 0 1 .75-.75h5.5a.75.75 0 0 1 0 1.5h-5.5a.75.75 0 0 1-.75-.75Zm.75 3.25h5.5a.75.75 0 0 1 0 1.5h-5.5a.75.75 0 0 1 0-1.5Zm-4.5-3.25a1.75 1.75 0 1 1-3.5 0 1.75 1.75 0 0 1 3.5 0ZM7 14.5h5a1 1 0 0 1 1 1v.5s-.5 2.5-3.5 2.5S6 16 6 16v-.5a1 1 0 0 1 1-1Z"/></svg>
